!!!COM: L van Beethoven
!!!OTL: Scherzo
**kern	**dynam	**kern	**dynam	**kern	**dynam	**kern	**dynam	**mxhm
*part4	*part4	*part3	*part3	*part2	*part2	*part1	*part1	*part1
*staff4	*	*staff3	*	*staff2	*	*staff1	*	*
*I"Violoncello	*	*I"Viola	*	*I"Violin II	*	*I"Violin I	*	*
*clefF4	*	*clefC3	*	*clefG2	*	*clefG2	*	*
*k[b-e-a-d-g-]	*	*k[b-e-a-d-g-]	*	*k[b-e-a-d-g-]	*	*k[b-e-a-d-g-]	*	*
*D-:	*	*D-:	*	*D-:	*	*D-:	*	*
*M2/4	*	*M2/4	*	*M2/4	*	*M2/4	*	*
=1	=1	=1	=1	=1	=1	=1	=1	=1
!	!	!	!	!	!	!LO:TX:a:B:t=Adagio ma non troppo	!	!
*MM25	*	*MM25	*	*MM25	*	*MM25	*	*
!	!	!	!LO:DY:a	!	!	!LO:TX:a:t=[quarter]=25	!	!
8D-	p	8A-	p p	8F 8d-	.	(16dd-LL	p	.Eb.I
.	.	.	.	.	.	16ff)	.	.
8r	.	8r	.	8r	.	16ff'	.	.
.	.	.	.	.	.	16ff'JJ	.	.
8D-	.	8d-	.	8A- 8f	.	(16ffLL	.	.
.	.	.	.	.	.	16aa-)	.	.
8r	.	8r	.	8r	.	16aa-'	.	.
.	.	.	.	.	.	16aa-'JJ	.	.
=2	=2	=2	=2	=2	=2	=2	=2	=2
8C	.	8e-	.	8A- 8g-	.	(16aa-LL	.	V65
.	.	.	.	.	.	16gg-)	.	.
8r	.	8r	.	8r	.	(16gg-	.	.
.	.	.	.	.	.	16ee-JJ)	.	.
8G-	.	8c	.	8A- 8e-	.	(16ee-LL	.	V2
.	.	.	.	.	.	16cc)	.	.
8r	.	8r	.	8r	.	(16cc	.	.
.	.	.	.	.	.	16a-JJ)	.	.
=3	=3	=3	=3	=3	=3	=3	=3	=3
8F	.	8A-	.	8d-	.	(16a-LL	.	I6
.	.	.	.	.	.	16dd-JJ)	.	.
8r	.	8r	.	8r	.	16dd-'LL	.	.
.	.	.	.	.	.	(64ccLL	.	.
.	.	.	.	.	.	64dd-	.	.
.	.	.	.	.	.	64ee-	.	.
.	.	.	.	.	.	64dd-JJJJ)	.	.
8C	.	8A-	.	8e-	.	(16a-LL	.	V6
.	.	.	.	.	.	16ee-JJ)	.	.
8r	.	8r	.	8r	.	16ee-'LL	.	.
.	.	.	.	.	.	(64ddLL	.	.
.	.	.	.	.	.	64ee-	.	.
.	.	.	.	.	.	64ff	.	.
.	.	.	.	.	.	64ee-JJJJ)	.	.
=4	=4	=4	=4	=4	=4	=4	=4	=4
16D-LL	.	16d-LL	.	16A-LL 16f	.	16a-'LL	.	I
16r	.	16r	.	16r	.	(64eeXLL	.	.
.	.	.	.	.	.	64ff	.	.
.	.	.	.	.	.	64gg-	.	.
.	.	.	.	.	.	64ffJJJJ)	.	.
16GG-	.	16e-	.	16B- 16g-	.	16b-'LL	.	ii6
16r	.	16r	.	16r	.	(32gg-L	.	.
.	.	.	.	.	.	64aa-L	.	.
.	.	.	.	.	.	64bb-JJJJ)	.	.
16AA-JJ	.	16cJJ	.	16A- 16e-	.	8ee-	.	V7\\
16r	.	16r	.	32a-L	.	.	.	.
.	.	.	.	32a-JJJ	.	.	.	.
8r	.	8r	.	(32gLLL	.	8r	.	.
.	.	.	.	32g-X	.	.	.	.
.	.	.	.	32f	.	.	.	.
.	.	.	.	32e-JJJ)	.	.	.	.
=5	=5	=5	=5	=5	=5	=5	=5	=5
8DD-	p	(16FLL	p	(16d-LL	p	4r	.	I
.	.	16A-)	.	16f)	.	.	.	.
8r	.	16A-'	.	16f'	.	.	.	.
.	.	16A-'JJ	.	16f'JJ	.	.	.	.
(16D-LL	.	(16A-'LL	.	(16fLL	.	[8aa-L	p	.
16F)	.	16A-'	.	16a-)	.	.	.	.
16F'	.	16A-'	.	(16a-	.	32aa-LL]	.	I6
.	.	.	.	.	.	(32ff	.	.
16F'JJ	.	16A-'JJ)	.	16a-JJ)	.	32ee-	.	.
.	.	.	.	.	.	32dd-JJJ)	.	.
=6	=6	=6	=6	=6	=6	=6	=6	=6
(16FLL	.	8.A-L	.	(16a-LL	.	16dd-'LL	.	.
16E-)	.	.	.	16g-JJ)	.	([16ccJJ	.	V43
(16E-'	.	.	.	(16g-LL	.	32ccLLL]	.	.
.	.	.	.	.	.	32dd-	.	.
16CJJ)	.	16A-Jk	.	16e-JJ)	.	32ee-	.	V65
.	.	.	.	.	.	32ffJJ)	.	.
(16CLL	.	(16A-LL	.	(16e-LL	.	([8gg-J	.	.
16AA-)	.	16E-JJ)	.	16cJJ)	.	.	.	.
(16AA-	.	(16E-LL	.	(16cLL	.	32gg-LLL]	.	V7
.	.	.	.	.	.	32ee-)	.	.
16GG-JJ)	.	16CJJ)	.	16A-JJ)	.	32aa-'	.	V2
.	.	.	.	.	.	32aa-'JJJ	.	.
=7	=7	=7	=7	=7	=7	=7	=7	=7
4FF	.	([4D- 4A-	.	(16A-LL	.	(16.aa-LL	.	I6
.	.	.	.	16d-JJ)	.	.	.	.
.	.	.	.	.	.	32ffK)	.	.
.	.	.	.	16d-'LL	.	16dd-'JJ	.	.
.	.	.	.	(64cLL	.	16r	.	.
.	.	.	.	64d-	.	.	.	.
.	.	.	.	64e-	.	.	.	.
.	.	.	.	64d-JJJJ)	.	.	.	.
4GG-	.	4D-]) 4B-	.	(16B-LL	.	(16.bb-LL	.	ii65
.	.	.	.	16g-JJ)	.	.	.	.
.	.	.	.	.	.	32gg-K)	.	.
.	.	.	.	16g-'LL	.	16ee-'JJ	.	.
.	.	.	.	(64fLL	.	16r	.	.
.	.	.	.	64g-	.	.	.	.
.	.	.	.	64a-	.	.	.	.
.	.	.	.	64g-JJJJ)	.	.	.	.
=8	=8	=8	=8	=8	=8	=8	=8	=8
16AA-LL	.	16A-LL	.	16f'LL	.	16r	.	V(64)
16r	.	16r	.	(64gLL	.	16dd-LL	.	.
.	.	.	.	64a-	.	.	.	.
.	.	.	.	64b-	.	.	.	.
.	.	.	.	64a-JJJJ)	.	.	.	.
16AA-JJ	.	16G-JJ	.	16e-'LL	.	16r	.	V7
16r	.	16r	.	(64gLL	.	16ccJJ	.	.
.	.	.	.	64a-	.	.	.	.
.	.	.	.	64b-	.	.	.	.
.	.	.	.	64a-JJJJ)	.	.	.	.
8D-	.	8F	.	8d-	.	8dd-L	.	I\\
8r	.	8r	.	8r	.	16r	.	.
.	.	.	.	.	.	16a-Jk	.	.
=9	=9	=9	=9	=9	=9	=9	=9	=9
16.AA-LL	.	(16.CLL	.	(16.g-LL	.	(16.ee-LL	.	V[V7
32AA-K	.	32D-K)	.	32fK)	.	32dd-K)	.	.
(16AA-'	.	(16E-'	.	(16e-'	.	(16cc'	.	.
16AA-'JJ)	.	16F'JJ)	.	16d-'JJ)	.	16b-'JJ)	.	.
8.AA-L	.	8.G-L	.	8.cL	.	8.a-L	.	V2
16AA-Jk	.	16FJk	.	16dJk	.	16a-Jk	.	#viio6/ii
=10	=10	=10	=10	=10	=10	=10	=10	=10
(16AA-'LL	.	(16G-'LL	.	(16e-'LL	.	(16a-'LL	.	V2
16AA-'	.	16E-')	.	16c')	.	16a-')	.	.
16AA-'	.	(16F	.	(16d-'	.	(16a-	.	.
16AA-'JJ)	.	16GJJ)	.	16d-'JJ)	.	16b-JJ)	.	viio/V
8AA-	.	8A-	.	(16.cLL	.	(16.e-LL	.	V]
.	.	.	.	64d-LL	.	64fLL	.	.
.	.	.	.	64e-JJJJ)	.	64gJJJJ)	.	.
8r	.	8r	.	48f'LLL	.	48a-'LLL	.	.
.	.	.	.	48g'	.	48b-'	.	.
.	.	.	.	48a-'JJJ	.	48cc'JJJ	.	.
.	.	.	.	48b-'LLL	.	48dd-'LLL	.	.
.	.	.	.	48cc'	.	48ee-'	.	.
.	.	.	.	48dd-'JJJ	.	48ff'JJJ	.	.
=11	=11	=11	=11	=11	=11	=11	=11	=11
(16.A-LL	.	(16.cLL	.	(16.ee-LL	.	(16.gg-LL	.	V7
32B-K)	.	32d-K)	.	32dd-K)	.	32ffK)	.	.
(16c'	.	(16e-'	.	(16cc'	.	(16ee-'	.	V65
16d-'JJ)	.	16f'JJ)	.	16b-'JJ)	.	16dd-'JJ)	.	.
8.e-L	[ <	8.g-L	[ <	(16a-LL	<	8.ccL	[ <	V43
.	.	.	.	16b--X	.	.	.	.
.	.	.	.	16a-	[ >	.	.	.
16e-Jk	>]	16g-Jk	>]	16a-'JJ)	]]	(16ccJk	>]	.
=12	=12	=12	=12	=12	=12	=12	=12	=12
(8d-L	<	(8fL	<	(8a-L	<	16.dd-LL	<	I
.	.	.	.	.	.	32ee-JJk)	.	.
8B-	>	8d-	>	8dd-	>	(16.ffLL	.	vi
.	.	.	.	.	.	32ggJJk)	.	.
8A-J)	]	8e-J)	]	8ccJ)	]	(16.bb-LL	[ >	V(9)
.	.	.	.	.	.	32aa-JJk	.	V
8r	]	8r	]	8r	]	32ggLLL	.	.
.	.	.	.	.	.	32gg-X	.	.
.	.	.	.	.	.	32ff	.	.
.	.	.	.	.	.	32dd-JJJ)	]]	.
=13	=13	=13	=13	=13	=13	=13	=13	=13
!	!	!	!LO:DY:a	!	!	!	!	!
4r	.	8r	p	2F 2d-	.	(16dd-LL	p	I6
.	.	.	.	.	.	16ff)	.	.
!	!	!LO:TX:a:t=queste note ben marcate	!	!	!	!	!	!
.	.	32.r	.	.	.	16ff'JJ	.	.
.	.	64d-'KLLL	p	.	.	.	.	.
.	.	32.A-'	.	.	.	(64fLLLL	.	.
.	.	.	.	.	.	64a-	.	.
.	.	.	.	.	.	64dd-	.	.
.	.	64F'JJJk	.	.	.	64ffJJJJ)	.	.
8r	.	8D-	.	.	.	(16ffLL	.	I
.	.	.	.	.	.	16aa-)	.	.
!LO:TX:a:t=queste note ben marcate	!	!	!	!	!	!	!	!
32.r	.	8r	.	.	.	16aa-'JJ	.	.
64AA-'KLLL	p	.	.	.	.	.	.	.
32.FF'	.	.	.	.	.	(64a-LLLL	.	.
.	.	.	.	.	.	64dd-	.	.
.	.	.	.	.	.	64ff	.	.
64DD-'JJJk	.	.	.	.	.	64aa-JJJJ)	.	.
=14	=14	=14	=14	=14	=14	=14	=14	=14
8CCL	.	8r	.	([4A- 4e-	.	(16aa-LL	.	V65
.	.	.	.	.	.	32gg-L)	.	.
.	.	.	.	.	.	64r	.	.
.	.	.	.	.	.	64gg-JJJk	.	.
8r	.	32.r	.	.	.	(16gg-LL	.	.
.	.	64e-'KLLL	.	.	.	.	.	.
.	.	32.c'	.	.	.	32ee-L)	.	.
.	.	.	.	.	.	64r	.	.
.	.	64A-'JJJk	.	.	.	64ee-JJJk	.	.
8r	.	8G-	.	4A-]) 4c	.	(16ee-LL	.	.
.	.	.	.	.	.	32ccL)	.	.
.	.	.	.	.	.	64r	.	.
.	.	.	.	.	.	64ccJJJk	.	.
32.r	.	8r	.	.	.	(16ccLL	.	.
64GG-'KLL	.	.	.	.	.	.	.	.
32.AA-'	.	.	.	.	.	32a-L)	.	V7
.	.	.	.	.	.	64r	.	.
64EE-'JJJk	.	.	.	.	.	64a-JJJk	.	.
=15	=15	=15	=15	=15	=15	=15	=15	=15
8FFL	.	8r	.	[8d- [8A-L	.	(16a-LL	.	I6
.	.	.	.	.	.	16dd-JJ)	.	.
8r	.	32.r	.	32.A-LL]	.	16dd-'LL	.	.
.	.	64D-'KLLL	.	64FK	.	.	.	.
.	.	32.E-'	.	32.G-	.	(64ccLL	.	.
.	.	.	.	.	.	64dd-	.	.
.	.	.	.	.	.	64ee-	.	.
.	.	64F'JJJk	.	64A-JJJk	.	64dd-JJJJ)	.	.
8r	.	8G-	.	(8d-L] ([8B-L	.	(16b-LL	.	IV
.	.	.	.	.	.	16gg-JJ)	.	.
32.r	.	8r	.	32.e-J) 32.B-LL]	.	16gg-'LL	.	.
64EE-'KLL	.	.	.	64G-K	.	.	.	.
32.GG-'	.	.	.	32.B-	.	(64ffLL	.	.
.	.	.	.	.	.	64gg-	.	.
.	.	.	.	.	.	64aa-	.	ii6
64EE-'JJJk	.	.	.	64G-JJJk)	.	64gg-JJJJ)	.	.
=16	=16	=16	=16	=16	=16	=16	=16	=16
16AA-LL	.	16A-LL	.	16d-LL	.	16ff'LL	.	V(64)
16r	.	16r	.	16r	.	(64ggLL	.	.
.	.	.	.	.	.	64aa-	.	.
.	.	.	.	.	.	64gg	.	.
.	.	.	.	.	.	64ffJJJJ)	.	.
16AA-JJ	.	16G-JJ	.	16cJJ	.	16ee-'LL	.	V7
16r	.	16r	.	16r	.	(64ggLL	.	.
.	.	.	.	.	.	64aa-	.	.
.	.	.	.	.	.	64bb-	.	.
.	.	.	.	.	.	64aa-JJJJ)	.	.
8D-L	.	8F	.	8d-	.	8dd-L	.	I\\
16r	.	8r	.	8r	.	16r	.	.
16AA-Jk	pp	.	.	.	.	16A-Jk	pp	.
=17	=17	=17	=17	=17	=17	=17	=17	=17
(8A-L	.	4r	.	2r	.	(8a-L	.	i.V
16F-XL	.	.	.	.	.	16f-XL	.	.
16CJJ	.	.	.	.	.	16cJJ	.	V6
8D-L	.	8r	.	.	.	8d-L	.	i
16AA-L	.	16r	.	.	.	16A-L	.	.
16CJJ	.	(16C	pp	.	.	16cJJ	.	V6
=18	=18	=18	=18	=18	=18	=18	=18	=18
16D-LL	.	16D-LL	.	2r	.	16d-LL	.	i
16E-	.	16E-	.	.	.	16e-	.	.
16F-X	.	16F-X	.	.	.	16f-X	.	.
16GJJ	.	16GJJ	.	.	.	16gJJ	.	.
16A-LL	.	16A-LL	.	.	.	16a-LL	.	v.i
16B-	.	16B-	.	.	.	16b-	.	.
16c-X	.	16c-X	.	.	.	16cc-X	.	.
16dJJ)	.	16dJJ)	.	.	.	16ddJJ)	.	.
=19	=19	=19	=19	=19	=19	=19	=19	=19
!LO:TX:b:t=cresc.	!	!LO:TX:b:t=cresc.	!	!LO:TX:b:t=cresc.	!	!LO:TX:b:t=cresc.	!	!
(8e-L	.	8.e-L	.	(8e-L	.	(8ee-L	.	V
16c-XL	.	.	.	16a-L	.	16ee-L	.	i6
16GJJ	.	([16e-Jk	.	16b-JJ	.	16dd-JJ	.	V65
16A-LL	.	16e-LL]	.	16a-LL	.	16cc-XLL	.	i
16E-	.	16G	.	16d-	.	16b-	.	V7
16F-X	.	16A-	.	16c-X	.	16a-	.	VI
16D-JJ)	.	16d-JJ)	.	16A-JJ)	.	16f-XJJ)	.	iv
=20	=20	=20	=20	=20	=20	=20	=20	=20
16E-LL	pp	16c-XLL	pp	16A-LL	pp	16e-LL	pp	V(64)
16r	.	16r	.	16r	.	16r	.	.
16EE-JJ	.	16B-JJ	.	16GJJ	.	16e-JJ	.	V
16r	.	16r	.	16r	.	16r	.	.
8AA-	.	8A-	.	8A-L	.	8A-	.	i\\
8r	.	8r	.	16r	.	8r	.	.
.	.	.	.	16A-Jk	.	.	.	.
=21	=21	=21	=21	=21	=21	=21	=21	=21
2r	.	2r	.	(8a-L	pp	(32dd-LLL	pp	iv64
.	.	.	.	.	.	32ee-	.	.
.	.	.	.	.	.	32ff-X	.	.
.	.	.	.	.	.	32gg-JJJ	.	.
.	.	.	.	16f-XL	.	32aa-LLL	.	VI
.	.	.	.	.	.	32bb--X	.	.
.	.	.	.	16cJJ	.	32aa-	.	V6/iv
.	.	.	.	.	.	32gg-JJJ	.	.
.	.	.	.	8d-L	.	32gg-LLL	.	iv
.	.	.	.	.	.	32ff-	.	.
.	.	.	.	.	.	32ee-	.	.
.	.	.	.	.	.	32dd-JJJ	.	.
.	.	.	.	16A-L	.	32ccLLL	.	V/iv
.	.	.	.	.	.	32b--X	.	.
.	.	.	.	16cJJ	.	32a-	.	V65/iv
.	.	.	.	.	.	32g-JJJ)	.	.
=22	=22	=22	=22	=22	=22	=22	=22	=22
4r	.	4r	.	16d-LL	.	(32f-XLLL	.	iv
.	.	.	.	.	.	32cc	.	.
.	.	.	.	16e-	.	32dd-	.	viio6/iv
.	.	.	.	.	.	32ccJJJ	.	.
.	.	.	.	16f-X	.	32dd-LLL	.	iv6
.	.	.	.	.	.	32ff-X	.	.
.	.	.	.	16gJJ)	.	32ee-	.	V65
.	.	.	.	.	.	32dd-JJJ)	.	.
(16AA-LL	p	(16A-LL	p	(32a-LLL	.	(32cc-XLLL	.	i
.	.	.	.	32g	.	32gg	.	.
16BB-	.	16B-	.	32a-	.	32aa-	.	.
.	.	.	.	32gJJJ	.	32ggJJJ	.	.
16C-X	.	16c-X	.	32a-LLL	.	32aa-LLL	.	i6
.	.	.	.	32cc-X	.	32ccc-X	.	.
16DJJ)	.	16dJJ)	.	32b-	.	32bb-	.	V65/V
.	.	.	.	32a-JJJ)	.	32aa-JJJ)	.	.
=23	=23	=23	=23	=23	=23	=23	=23	=23
!LO:TX:b:t=cresc.	!	!LO:TX:b:t=cresc.	!	!LO:TX:b:t=cresc.	!	!LO:TX:b:t=cresc.	!	!
(8E-L	.	(8e-L	.	(32gLLL	.	(32ggLLL	.	V
.	.	.	.	32dd	.	32ddd	.	.
.	.	.	.	32ee-	.	32eee-	.	.
.	.	.	.	32ddJJJ	.	32dddJJJ	.	.
16C-XL	.	16c-XL	.	32ee-LLL	.	32eee-LLL	.	i6
.	.	.	.	32ff-X	.	32fff-X	.	.
16GGJJ	.	16GJJ	.	32ee-	.	32eee-	.	V65
.	.	.	.	32dd-XJJJ)	.	32ddd-XJJJ)	.	.
16AA-LL	.	16A-LL	.	(32cc-XLLL	.	(32ccc-XLLL	.	i
.	.	.	.	32b-	.	32bb-	.	.
16EE-	.	16E-	.	32a-	.	32aa-	.	V
.	.	.	.	32gJJJ	.	32ggJJJ	.	.
16FF-X	.	16F-X	.	32b-LLL	.	32bb-LLL	.	VI
.	.	.	.	32a-	.	32aa-	.	.
16DD-JJ)	.	16D-JJ)	.	32g-X	.	32gg-X	.	iv
.	.	.	.	32f-XJJJ)	.	32ff-XJJJ)	.	.
=24	=24	=24	=24	=24	=24	=24	=24	=24
16EE-LL	p	16E-LL	p	(32f-XLLL	p	(32ffLLL	p	V(64)
.	.	.	.	32e-	.	32ee-	.	.
16r	.	16r	.	32d-	.	32dd-	.	.
.	.	.	.	32c-XJJJ)	.	32cc-XJJJ)	.	.
16EE-JJ	.	16E-JJ	.	(32c-LLL	.	(32cc-LLL	.	V7
.	.	.	.	32B-	.	32b-	.	.
16r	.	16r	.	32d-	.	32dd-	.	.
.	.	.	.	32GJJJ)	.	32gJJJ)	.	.
8AA-L	.	8A-	.	8A-	.	8a-	.	i\\
16r	.	8r	.	8r	.	8r	.	.
(16C-XJk	.	.	.	.	.	.	.	.
=25	=25	=25	=25	=25	=25	=25	=25	=25
8c-XL	fp	8r	.	8r	.	8r	.	i6
16A-L	.	16r	.	8cc-XL	fp	16r	.	i
16E-JJ)	.	16c-X	.	.	.	(16gg-	.	III6
!	!LO:DY:a	!	!	!	!LO:DY:a	!	!	!
(16F-XLL	sf sf	(16c-LL	.	16cc-Jk	sf sf	16aa-LL	.	VI
32CK)	.	32e-K)	.	32cc-KLL	.	32gg-K)	.	III
32r	.	32r	.	32r	.	32r	.	.
!	!	!	!	!	!LO:DY:a	!	!	!
(16F-	sf	(16f-X	sf	16cc-	sf sf	(16aa-	.	VI
32CJJk)	.	32e-JJk)	.	32cc-JJk	.	32gg-JJk)	.	III
32r	.	32r	.	32r	.	32r	.	.
=26	=26	=26	=26	=26	=26	=26	=26	=26
(8A-L	fp	8r	.	8r	.	8r	.	i.i64
16F-XL	.	16r	.	8a-	fp	16r	.	i6
16CJJ)	.	16A-	.	.	.	(16ee-	.	V6
!LO:TX:b:t=cresc.	!	!LO:TX:b:t=cresc.	!	!LO:TX:b:t=cresc.	!LO:DY:a	!	!	!
(16D-LL	.	(16A-LL	.	16a-LL	sf	16ff-XLL	.	i
!	!	!	!	!	!	!LO:TX:b:t=cresc.	!	!
32AA-K)	.	32cK)	.	32a-K	.	32ee-K)	.	V
32r	.	32r	.	32r	.	32r	.	.
(16D-	.	(16d-	.	(16a-	.	(16ff-	.	i
16AA-JJ	.	32c-XJJk)	.	32fJJk)	.	32ddd-JJk)	.	V43/iv
.	.	32r	.	32r	.	32r	.	.
=27	=27	=27	=27	=27	=27	=27	=27	=27
16BB--XLL	fp	(8.d-L	fp	(16g-LL	fp	(8ddd-L	fp	V65/iv
16FF	.	.	.	16cc-X	.	.	.	.
16GG-	.	.	.	16b--X	.	16bb--XL	.	iv
!LO:TX:a:t=decresc.	!	!	!	!	!	!	!	!
!LO:TX:b:t=decresc.	!	!LO:TX:a:t=decresc.	!	!	!	!LO:TX:b:t=decresc.	!	!
16DD-JJ	.	16c-XJk	.	16a-JJ	.	16ffJJ	.	V7/iv
16EE--XLL	.	16B--XLL	.	16g-LL	.	16gg-LL	.	.bII
16CC	.	16A-	.	16g-	.	16ee-	.	V65
16DD-	.	16A-	.	16f-X	.	16ff-X	.	i
16FF-XJJ)	.	16F-XJJ)	.	16a-JJ)	.	16dd-JJ)	.	i6
=28	=28	=28	=28	=28	=28	=28	=28	=28
16GG-LL	pp	16G-LL	pp	16b--XLL	pp	16ee--XLL	pp	.bII6
16r	.	16r	.	16r	.	16r	.	.
16AA-JJ	.	16E-JJ	.	16g-JJ	.	16ccJJ	.	V7
16r	.	16r	.	16r	.	16r	.	.
8DD-L	.	8D-	.	8f-X	.	8dd-	.	i\\
16r	.	8r	.	8r	.	8r	.	.
(16C-XJk	.	.	.	.	.	.	.	.
=29	=29	=29	=29	=29	=29	=29	=29	=29
8c-XL	fp	8.c-XL	fp	32r	.	8r	.	v.i6
.	.	.	.	(32b-LLL	.	.	.	.
.	.	.	.	32cc-X	.	.	.	.
.	.	.	.	32b-JJJ	.	.	.	.
16A-L	.	.	.	32cc-LLL	.	16r	.	i
.	.	.	.	32dd-	.	.	.	.
16E-JJ)	.	32c-'LL	.	32cc-	.	32gg-'LLL	.	viio/VI
.	.	32c-'JJJ	.	32b--XJJJ)	.	32gg-'JJJ	.	.
(16F-XLL	sf	(32g-LLL	sf	(32b--LLL	sf	(32bb--XLLL	sf	VI
.	.	32f-X)	.	32a-)	.	32aa-)	.	.
32C-XK)	.	32e-'	.	32g-'	.	32gg-'	.	III
32r	.	32e-'JJJ	.	32g-'JJJ	.	32gg-'JJJ	.	.
(16F-	sf	(32g-LLL	sf	(32b--LLL	sf	(32bb--LLL	sf	VI
.	.	32f-)	.	32a-)	.	32aa-)	.	.
32C-JJk)	.	32e-'	.	32g-'	.	32gg-'	.	III
32r	.	32e-'JJJ	.	32g-'JJJ	.	32gg-'JJJ	.	.
=30	=30	=30	=30	=30	=30	=30	=30	=30
(8A-L	fp	8.A-L	fp	32r	.	8r	.	i.i64
.	.	.	.	(32gLLL	.	.	.	.
.	.	.	.	32a-	.	.	.	.
.	.	.	.	32g	.	.	.	.
16F-XL	.	.	.	32a-JJJ	.	16r	.	i6
.	.	.	.	32b--XLLL	.	.	.	.
16CJJ)	.	32A-'LL	.	32a-	.	32ee-'LLL	.	V6
.	.	32A-'JJJ	.	32g-XJJJ)	.	32ee-'JJJ	.	.
(16D-LL	sf	(32e-LLL	sf	(32g-LLL	sf	(32gg-LLL	sf	i
.	.	32d-)	.	32f-X)	.	32ff-X)	.	.
32AA-K)	.	32c'	.	32e-'	.	32ee-'	.	V
32r	.	32c'JJJ	.	32e-'JJJ	.	32ee-'JJJ	.	.
(16D-	sf	(32e-LLL	sf	(32g-LLL	sf	(32gg-LLL	sf	i
.	.	32d-)	.	32f-)	.	32ff-)	.	.
16AA-JJ	.	32c-X'	.	32f'	.	32ddd-'	.	V43/iv
.	.	32c-'JJJ	.	32f'JJJ	.	32ddd-'JJJ	.	.
=31	=31	=31	=31	=31	=31	=31	=31	=31
16BB--XLL	fp	(8d-L	fp	(32g-LLL	fp	(32ddd-LLL	fp	iv6
.	.	.	.	32cc	.	32ccc	.	.
16FF	.	.	.	32dd-	.	32ddd-	.	V65/iv
.	.	.	.	32ee--XJJJ	.	32eee--XJJJ	.	.
16GG-	.	16B--XL	.	32dd-LLL	.	32ddd-LLL	.	iv
.	.	.	.	32cc-X	.	32ccc-X	.	.
16DD-JJ	.	16FJJ	.	32b--X	.	32bb--X	.	V/iv
.	.	.	.	32a-JJJ)	.	32aa-JJJ)	.	.
16EE--XLL	.	16G-LL	.	(32cc-LLL	.	(32ccc-LLL	.	.bII
.	.	.	.	32b--	.	32bb--	.	.
16CC	.	16E-	.	32a-	.	32aa-	.	V65
.	.	.	.	32g-JJJ	.	32gg-JJJ	.	.
16DD-	.	16F-X	.	32g-LLL	.	32gg-LLL	.	i
.	.	.	.	32f-X	.	32ff-X	.	.
16FF-XJJ)	.	16A-JJ)	.	32e-	.	32ee-	.	i6
.	.	.	.	32d-JJJ)	.	32dd-JJJ)	.	.
=32	=32	=32	=32	=32	=32	=32	=32	=32
16GG-LL	pp	16B--XLL	pp	16e--XLL	pp	16ee--XLL	pp	.bII6
16r	.	16r	.	16r	.	16r	.	.
16AA-JJ	.	16G-JJ	.	16cJJ	.	16ccJJ	.	V7
16r	.	16r	.	16r	.	16r	.	.
8BB--X	.	8F-X	.	8d-L	.	8dd-	.	VI\\
8r	.	8r	.	16r	.	8r	.	.
.	.	.	.	16d-Jk	.	.	.	.
=33	=33	=33	=33	=33	=33	=33	=33	=33
2r	.	(16b--XLL	pp	(16dd-LL	pp	32r	.	iv6
.	.	.	.	.	.	(32cccLLL	pp	.
.	.	16f	.	16a-	.	32ddd-	.	V65/iv
.	.	.	.	.	.	32eee--XJJJ	.	.
.	.	16g-	.	16b--X	.	32ddd-LLL	.	iv
.	.	.	.	.	.	32ccc-X	.	.
.	.	16d-JJ	.	16fJJ	.	32bb--X	.	V
.	.	.	.	.	.	32aa-JJJ)	.	.
.	.	16e--XLL	.	16g-LL	.	(32ccc-LLL	.	.bII
.	.	.	.	.	.	32bb--	.	.
.	.	16c	.	16e-	.	32aa-	.	V65
.	.	.	.	.	.	32gg-JJJ	.	.
.	.	16d-	.	16f-X	.	32gg-LLL	.	i
.	.	.	.	.	.	32ff-X	.	.
.	.	16F-XJJ)	.	16A-JJ)	.	32ee-	.	i6
.	.	.	.	.	.	32dd-JJJ)	.	.
=34	=34	=34	=34	=34	=34	=34	=34	=34
4r	.	8G-	.	8B--X	.	8ee--X	.	.bII6
.	.	8r	.	8r	.	8r	.	.
16GGLL	pp	16GLL	pp	16B-LL	pp	16f-XLL 16dd-	pp	#viio7/V
16r	.	16r	.	16r	.	16r	.	.
16GGJJ	.	16GJJ	.	16B-JJ	.	16f-JJ 16dd-	.	.
16r	.	16r	.	16r	.	16r	.	.
=35	=35	=35	=35	=35	=35	=35	=35	=35
8AA-L	.	(16A-LL	.	8c	.	8e- 8cc	.	V[V
.	.	16a-JJ)	.	.	.	.	.	.
8r	.	16a-'LL	.	8r	.	8r	.	.
.	.	(64gLL	.	.	.	.	.	.
.	.	64a-	.	.	.	.	.	.
.	.	64b--X	.	.	.	.	.	.
.	.	64a-JJJJ)	.	.	.	.	.	.
8A-J	.	4a-	.	(16A-LL	.	(16f-XLL	.	i64
.	.	.	.	16f-XJJ)	.	16dd-JJ)	.	.
8r	.	.	.	16f-'LL	.	16dd-'LL	.	.
.	.	.	.	(64e-LL	.	(64ccLL	.	.
.	.	.	.	64f-	.	64dd-	.	.
.	.	.	.	64g-	.	64ee-	.	.
.	.	.	.	64f-JJJJ)	.	64dd-JJJJ)	.	.
=36	=36	=36	=36	=36	=36	=36	=36	=36
8AA-	.	(16A-LL	.	16e-	.	16cc	.	V
.	.	16a-JJ)	.	16r	.	16r	.	.
8r	.	16a-'LL	.	8r	.	8r	.	.
.	.	(64gLL	.	.	.	.	.	.
.	.	64a-	.	.	.	.	.	.
.	.	64b--X	.	.	.	.	.	.
.	.	64a-JJJJ)	.	.	.	.	.	.
8A-	.	[4a-	.	(16A-LL	.	(16a-LL	.	i64]
.	.	.	.	16d-JJ)	.	16ff-XJJ)	.	.
8r	.	.	.	16d-'LL	.	16ff-'LL	.	.
.	.	.	.	(64cLL	.	(64ee-LL	.	.
.	.	.	.	64d-	.	64ff-	.	.
.	.	.	.	64e-	.	64gg-	.	.
.	.	.	.	64d-JJJJ)	.	64ff-JJJJ)	.	.
=37	=37	=37	=37	=37	=37	=37	=37	=37
16A-LL	.	16a-LL]	.	16cLL	.	16ee-LL	.	I.V[V6
16r	.	16cc	.	16ee-	.	16aa-	.	.
*clefC4	*	*	*	*	*	*	*	*
16a-JJ	.	16r	.	16r	.	16r	.	.
16r	.	16b-	.	16dd-	.	16gg-	.	IV6
16a-LL	.	16r	.	16r	.	16r	.	.
16r	.	16a-	.	16cc	.	16ff	.	iii6
16a-JJ	.	16r	.	16r	.	16r	.	.
16r	.	16g-JJ	.	16b-JJ	.	16ee-JJ	.	ii6
=38	=38	=38	=38	=38	=38	=38	=38	=38
32r	.	32fLLL	.	32a-LLL	.	32dd-LLL	.	I6
32A-LLL	.	32r	.	32r	.	32r	.	.
32r	.	32e-	.	32g-	.	32cc	.	viio6
32A-	.	32r	.	32r	.	32r	.	.
32r	.	32d-	.	32f	.	32b-	.	vi6
32A-	.	32r	.	32r	.	32r	.	.
32r	.	32c	.	32e-	.	32a-	.	V6
32A-	.	32r	.	32r	.	32r	.	.
32r	.	32B-	.	32d-	.	32g-	.	IV6
32AA-	.	32r	.	32r	.	32r	.	.
32r	.	32A-	.	32c	.	32f	.	iii6
32AA-	.	32r	.	32r	.	32r	.	.
32r	.	32G-	.	32B-	.	32e-	.	ii6
32AA-	.	32r	.	32r	.	32r	.	.
32r	.	32FJJJ	.	32A-JJJ	.	32d-JJJ	.	I6
32AA-JJJ	.	32r	.	32r	.	32r	.	.
=39	=39	=39	=39	=39	=39	=39	=39	=39
16r	.	(8E-L	<	(8G-L	<	(8cL	<	viio6
16AA-LL	.	.	.	.	.	.	.	.
16r	.	8FJ	.	8A-J	.	8dJ	.	#vii6/ii
16AA-	.	.	.	.	.	.	.	.
16r	.	8G-L)	[	8B-L)	[	8e-L)	[	ii6
(16AA-'	.	.	.	.	.	.	.	.
16AA-'	.	(16F'L	>	(16A-'L	>	(16d-X'L	>	I6
16AA-'JJ)	.	16F-X'JJ)	]]	16G'JJ)	]]	16d-'JJ)	]]	#viio7/V
=40	=40	=40	=40	=40	=40	=40	=40	=40
16r	.	(8E-L	<	(8G-L	<	(8cL	<	viio6
16AA-LL	.	.	.	.	.	.	.	.
16r	.	8FJ	.	8A-J	.	8dJ	.	#vii6/ii
16AA-	.	.	.	.	.	.	.	.
16r	.	8G-L)	[	8B-L)	[	8e-L)	[	ii6
(16AA-'	.	.	.	.	.	.	.	.
16AA-'	.	(16F'L	>	(16A-'L	>	(16d-X'L	>	I6
16AA-'JJ)	.	16F-X'JJ)	]]	16G'JJ)	]]	16d-'JJ)	]]	#viio2/V
=41	=41	=41	=41	=41	=41	=41	=41	=41
16r	.	16E-LL	p	16G-LL	p	8.cL	p	viio6]
16AA-LL	p	16E-	.	16G-	.	.	.	.
8r	.	8r	.	8r	.	.	.	.
.	.	.	.	.	.	(64dLLL	.	.
.	.	.	.	.	.	64e-	.	.
.	.	.	.	.	.	64f	.	.
.	.	.	.	.	.	64e-JJJJ)	.	.
16r	.	16r	.	16r	.	8.cL	.	V7
16A-JJ	.	16e-JJ	.	16g-JJ	.	.	.	.
8r	.	8r	.	8r	.	.	.	.
.	.	.	.	.	.	(64fLLL	.	.
.	.	.	.	.	.	64g-	.	.
.	.	.	.	.	.	64a-	.	.
.	.	.	.	.	.	64g-JJJJ)	.	.
=42	=42	=42	=42	=42	=42	=42	=42	=42
16r	.	16r	.	16r	.	8.cL	.	.
16A-	.	16e-	.	16g-	.	.	.	.
8r	.	8r	.	8r	.	.	.	.
.	.	.	.	.	.	(64aLLL	.	.
.	.	.	.	.	.	64b-	.	.
.	.	.	.	.	.	64cc	.	.
.	.	.	.	.	.	64b-JJJJ)	.	.
16A-LL	.	16e-LL	.	16g-LL	.	16c'LL	.	.
16r	.	16r	.	16r	.	(64aLL	.	.
.	.	.	.	.	.	64b-	.	.
.	.	.	.	.	.	64cc	.	.
.	.	.	.	.	.	64b-JJJJ)	.	.
16A-JJ	.	16e-JJ	.	16g-JJ	.	16c'LL	.	.
16r	.	16r	.	16r	.	(64aLL	.	.
.	.	.	.	.	.	64b-	.	.
.	.	.	.	.	.	64cc	.	.
.	.	.	.	.	.	64b-JJJJ)	.	.
=43	=43	=43	=43	=43	=43	=43	=43	=43
16AA-	.	8E-	.	16G-	.	(48cLLL	.	.
.	.	.	.	.	.	48d-	.	.
.	.	.	.	.	.	48d	.	.
16r	.	.	.	16r	.	48e-	.	.
.	.	.	.	.	.	48eX	.	.
.	.	.	.	.	.	48fJJJ	.	.
8r	.	8r	.	8r	.	48g-LLL	.	.
.	.	.	.	.	.	48g	.	.
.	.	.	.	.	.	48a-	.	.
.	.	.	.	.	.	48a	.	.
.	.	.	.	.	.	48b-	.	.
.	.	.	.	.	.	48bXJJJ	.	.
4r	.	4r	.	4r	.	48ccLLL	.	.
.	.	.	.	.	.	48dd-	.	.
.	.	.	.	.	.	48dd	.	.
.	.	.	.	.	.	48ee-	.	.
.	.	.	.	.	.	48eeX	.	.
.	.	.	.	.	.	48ffJJJ	.	.
.	.	.	.	.	.	48gg-LLL	.	.
.	.	.	.	.	.	48gg	.	.
.	.	.	.	.	.	48aa-	.	.
.	.	.	.	.	.	48aa	.	.
.	.	.	.	.	.	48ccc	.	.
.	.	.	.	.	.	48bb-JJJ)	.	.
=44	=44	=44	=44	=44	=44	=44	=44	=44
!	!	!	!	!	!	!LO:TX:b:t=cresc.	!	!
4r	.	4r	.	4r	.	(32aa-LLL	.	.
.	.	.	.	.	.	32gg-	.	.
.	.	.	.	.	.	32ff	.	.
.	.	.	.	.	.	32ee-JJJ	.	.
.	.	.	.	.	.	32ddLLL	.	.
.	.	.	.	.	.	32ee-	.	.
.	.	.	.	.	.	32gg-	.	.
.	.	.	.	.	.	32ee-JJJ	.	.
16r	.	16r	.	16r	.	32dd-XLLL	.	.
.	.	.	.	.	.	32cc	.	.
!	!	!LO:TX:a:t=cresc.	!	!LO:TX:a:t=cresc.	!	!	!	!
(16A-'LL	.	(16e-'LL	.	(16g-'LL	.	32b-	.	.
.	.	.	.	.	.	32a-JJJ	.	.
16A-'	.	16e-'	.	16g-'	.	32gLLL	.	.
.	.	.	.	.	.	32a-	.	.
16A-'JJ)	.	16e-'JJ)	.	16g-'JJ)	.	32b-	.	.
.	.	.	.	.	.	32ccJJJ)	.	.
=45	=45	=45	=45	=45	=45	=45	=45	=45
8D-	p	8d-L	p	8A-L 8f	p	(16dd-LL	p	I
.	.	.	.	.	.	16ff)	.	.
8r	.	8r	.	16r	.	16ff'	.	.
.	.	.	.	(64gLLL	.	16ff'JJ	.	.
.	.	.	.	64a-	.	.	.	.
.	.	.	.	64b-	.	.	.	.
.	.	.	.	64a-JJJJ)	.	.	.	.
4r	.	8r	.	8d-	.	(16ffLL	.	.
.	.	.	.	.	.	16aa-)	.	.
.	.	16r	.	8r	.	16aa-'	.	.
.	.	(64CLLL	.	.	.	16aa-'JJ	.	.
.	.	64D-	.	.	.	.	.	.
.	.	64E-	.	.	.	.	.	.
.	.	64D-JJJJ)	.	.	.	.	.	.
=46	=46	=46	=46	=46	=46	=46	=46	=46
4r	.	8C	.	8r	.	(16aa-LL	.	V6
.	.	.	.	.	.	16gg-)	.	.
.	.	8r	.	16r	.	(16gg-	.	.
.	.	.	.	(64GLLLL	.	16ee-JJ)	.	.
.	.	.	.	64A-	.	.	.	.
.	.	.	.	64B-	.	.	.	.
.	.	.	.	64A-JJJJ)	.	.	.	.
8r	.	4r	.	8g	.	(16ee-LL	.	V2
.	.	.	.	.	.	16cc)	.	.
16r	.	.	.	8r	.	(16cc	.	.
(64FLLLL	.	.	.	.	.	16a-JJ)	.	.
64G-	.	.	.	.	.	.	.	.
64A-	.	.	.	.	.	.	.	.
64G-JJJJ)	.	.	.	.	.	.	.	.
=47	=47	=47	=47	=47	=47	=47	=47	=47
8F	.	8r	.	8r	.	(16a-LL	.	I6
.	.	.	.	.	.	16dd-JJ)	.	.
8r	.	8A-L	.	8FL 8d-	.	16dd-'LL	.	.
.	.	.	.	.	.	(64ccLL	.	.
.	.	.	.	.	.	64dd-	.	.
.	.	.	.	.	.	64ee-	.	.
.	.	.	.	.	.	64dd-JJJJ)	.	.
8C	.	8r	.	8r	.	(16a-LL	.	V6
.	.	.	.	.	.	16ee-JJ)	.	.
8r	.	8A-J	.	8e-J	.	16ee-'LL	.	.
.	.	.	.	.	.	64dd'LL	.	.
.	.	.	.	.	.	64ee-'	.	.
.	.	.	.	.	.	64ff'	.	.
.	.	.	.	.	.	64ee-'JJJJ	.	.
=48	=48	=48	=48	=48	=48	=48	=48	=48
16D-LL	.	16d-LL	.	16A-LL 16f	.	16a-'LL	.	I
16r	.	16r	.	16r	.	(64eeXLL	.	.
.	.	.	.	.	.	64ff	.	.
.	.	.	.	.	.	64gg-	.	.
.	.	.	.	.	.	64ffJJJJ)	.	.
16GG-	.	16e-	.	16B-JJ 16g-	.	16b-'LL	.	ii6
16r	.	16r	.	16r	.	(32gg-L	.	.
.	.	.	.	.	.	64aa-L	.	.
.	.	.	.	.	.	64bb-JJJJ)	.	.
16AA-JJ	.	16cJJ	.	16A-LL 16e-	.	16ee-	.	V\\
16r	.	16r	.	32a-L	.	8.r	.	.
.	.	.	.	32a-JJJ	.	.	.	.
8r	.	8r	.	(32gLLL	.	.	.	.
.	.	.	.	32g-X	.	.	.	.
.	.	.	.	32f	.	.	.	.
.	.	.	.	32e-JJJ)	.	.	.	.
=49	=49	=49	=49	=49	=49	=49	=49	=49
!	!	!	!	!	!LO:DY:a	!	!	!
8DD-	.	(16FLL	p	(16d-LL	p p	32r	.	I
.	.	.	.	.	.	32aa-'LLL	.	.
.	.	16A-)	.	16f)	.	32r	.	.
.	.	.	.	.	.	32ff'	.	.
8r	.	16A-'	.	16f'	.	32r	.	.
.	.	.	.	.	.	32dd-'	.	.
.	.	16A-'JJ	.	16f'JJ	.	32a-'	.	.
.	.	.	.	.	.	32f'JJJ	.	.
(16D-LL	.	(16A-'LL	.	(16fLL	.	32d-'LLL	.	.
!	!	!	!	!	!	!LO:TX:b:t=stacc.	!	!
.	.	.	.	.	.	32aa-	.	.
16F)	.	16A-'	.	16a-)	.	32r	.	I6
.	.	.	.	.	.	32ff	.	.
16F'	.	16A-'	.	16a-'	.	32r	.	.
.	.	.	.	.	.	32dd-JJJ	.	.
16F'JJ	.	16A-'JJ)	.	16a-'JJ	.	48a-LLL	.	.
.	.	.	.	.	.	48f	.	.
.	.	.	.	.	.	48d-JJJ	.	.
=50	=50	=50	=50	=50	=50	=50	=50	=50
(16G-LL	.	(16A-'LL	.	(16a-LL	.	32cLLL	.	V2
.	.	.	.	.	.	32a-	.	.
16E-)	.	16A-'	.	16g-)	.	32r	.	V43
.	.	.	.	.	.	32cc	.	.
(16E-	.	16A-'	.	(16g-	.	32r	.	.
.	.	.	.	.	.	32ee-	.	.
16CJJ)	.	16A-'JJ)	.	16e-JJ)	.	32aa-	.	V65
.	.	.	.	.	.	32cccJJJ	.	.
(16CLL	.	(16A-LL	.	(16e-LL	.	32cLLL	.	.
.	.	.	.	.	.	32ee-	.	.
16AA-)	.	16E-)	.	16c)	.	32r	.	V7
.	.	.	.	.	.	32aa-	.	.
((16AA-	.	(16E-	.	(16c	.	32r	.	.
.	.	.	.	.	.	32ccc	.	.
16GG-JJ))	.	16CJJ)	.	16A-JJ)	.	32eee-	.	V2
.	.	.	.	.	.	32aaa-JJJ	.	.
=51	=51	=51	=51	=51	=51	=51	=51	=51
4FF	.	([4D- 4A-	.	(16A-LL	.	32r	.	I6
.	.	.	.	.	.	32aaa-LLL	.	.
.	.	.	.	16d-JJ)	.	32r	.	.
.	.	.	.	.	.	32fff	.	.
.	.	.	.	16d-'LL	.	32r	.	.
.	.	.	.	.	.	32ddd-	.	.
.	.	.	.	(64cLL	.	32aa-	.	.
.	.	.	.	64d-	.	.	.	.
.	.	.	.	64e-	.	32ff	.	.
.	.	.	.	64d-JJJJ)	.	.	.	.
4GG-	.	4D-]) 4B-	.	(16B-LL	.	32r	.	ii65
.	.	.	.	.	.	32bbb-	.	.
.	.	.	.	16g-JJ)	.	32r	.	.
.	.	.	.	.	.	32ggg-	.	.
.	.	.	.	16g-'LL	.	32r	.	.
.	.	.	.	.	.	32eee-	.	.
.	.	.	.	(64fLL	.	32bb-	.	.
.	.	.	.	64g-	.	.	.	.
.	.	.	.	64a-	.	32gg-JJJ	.	.
.	.	.	.	64g-JJJJ)	.	.	.	.
=52	=52	=52	=52	=52	=52	=52	=52	=52
16AA-LL	.	16D-LL 16A-	.	16f'LL	.	32r	.	V(64)
.	.	.	.	.	.	32ffLLL	.	.
16r	.	16r	.	(64gLL	.	32r	.	.
.	.	.	.	64a-	.	.	.	.
.	.	.	.	64b-	.	32aa-	.	.
.	.	.	.	64a-JJJJ)	.	.	.	.
16AA-JJ	.	16G-JJ 16c	.	16e-'LL	.	32r	.	V7
.	.	.	.	.	.	32ee-	.	.
16r	.	16r	.	(64gLL	.	32r	.	.
.	.	.	.	64a-	.	.	.	.
.	.	.	.	64b-	.	32aa-JJJ	.	.
.	.	.	.	64a-JJJ)	.	.	.	.
8D-	.	8F	.	8d-J	.	8dd-L	.	I\\
8r	.	8r	.	8r	.	16r	.	.
.	.	.	.	.	.	16a-Jk	.	.
=53	=53	=53	=53	=53	=53	=53	=53	=53
16.AA-LL	.	(16.CLL	.	(16.g-LL	.	(16.ee-LL	.	V[viio
32AA-K	.	32D-K)	.	32fK)	.	32dd-K)	.	I
(16AA-'	.	(16E-'	.	(16e-'	.	(16cc'	.	V
16AA-'JJ)	.	16F'JJ)	.	16d-'JJ)	.	16b-'JJ)	.	vi64
8.AA-L	.	8.G-L	.	8.cL	.	8.a-L	.	V2
16AA-Jk	.	16FJk	.	16dJk	.	16a-Jk	.	#io6
=54	=54	=54	=54	=54	=54	=54	=54	=54
(16AA-'LL	.	(16G-'LL	.	(16e-'LL	.	(16a-'LL	.	V2
16AA-'	.	16E-')	.	16c')	.	16a-')	.	.
16AA-'	.	(16F'	.	(16d-'	.	(16a-	.	I6
16AA-'JJ)	.	16G'JJ)	.	16d-'JJ)	.	16b-JJ)	.	#viio/V
8AA-	.	8A-	.	16.c'LL	.	16.e-'LL	.	V]
.	.	.	.	64d-'LL	.	64f'LL	.	.
.	.	.	.	64e-'JJJJ	.	64g'JJJJ	.	.
8r	.	8r	.	48f'LLL	.	48a-'LLL	.	.
.	.	.	.	48g'	.	48b-'	.	.
.	.	.	.	48a-'JJJ	.	48cc'JJJ	.	.
.	.	.	.	48b-'LLL	.	48dd-'LLL	.	.
.	.	.	.	48cc'	.	48ee-'	.	.
.	.	.	.	48dd-'JJJ	.	48ff'JJJ	.	.
=55	=55	=55	=55	=55	=55	=55	=55	=55
(16.A-LL	.	(16.cLL	.	(16.ee-LL	.	(16.gg-LL	.	V7
32B-K)	.	32d-K)	.	32dd-K)	.	32ffK)	.	.
(16c'	.	(16e-'	.	(16cc'	.	(16ee-'	.	V65
16d-'JJ)	.	16f'JJ)	.	16b-'JJ)	.	16dd-'JJ)	.	I
8.e-L	<	8.g-L	<	(16a-LL	<	8.ccL	<	V43
.	.	.	.	16b--X	.	.	.	.
.	.	.	.	16a-	.	.	.	.
16e-Jk	[ > ]]	16g-Jk	[ > ]]	16a-'JJ)	[ > ]]	(16ccJk	[ > ]]	.
=56	=56	=56	=56	=56	=56	=56	=56	=56
(8d-L	<	(8fL	<	(8a-L	<	16.dd-LL	<	I
.	.	.	.	.	.	32ee-JJk)	.	.
8B-	>	8d-	>	8dd-	>	(16.ffLL	.	vi
.	.	.	.	.	.	32ggJJk)	.	.
8A-J)	]	8e-J)	]	8ccJ)	]	(16.bb-LL	.	V(9)
.	.	.	.	.	.	32aa-JJk	[ >	V
8r	]	8r	]	8r	]	32ggLLL	.	.
.	.	.	.	.	.	32gg-X	.	.
.	.	.	.	.	.	32ff	.	.
.	.	.	.	.	.	32ee-JJJ)	]]	.
=57	=57	=57	=57	=57	=57	=57	=57	=57
!	!	!LO:TX:b:t=queste note ben marcate.	!	!	!	!	!	!
32DD-'LLL	.	4r	.	2F 2d-	.	(16dd-LL	.	I
32A-'	.	.	.	.	.	.	.	.
32r	.	.	.	.	.	16ff)	.	.
32F'	.	.	.	.	.	.	.	.
32r	.	.	.	.	.	16ff'JJ	.	.
32D-'	.	.	.	.	.	.	.	.
32AA-'	.	.	.	.	.	(96FLLLL	.	.
.	.	.	.	.	.	96A-	.	.
.	.	.	.	.	.	96d-	.	.
32FF'JJJ	.	.	.	.	.	96f	.	.
.	.	.	.	.	.	96a-	.	.
.	.	.	.	.	.	96dd-JJJJ)	.	.
!	!	!LO:TX:a:t=queste note ben marcate.	!	!	!	!	!	!
8DD-	.	32D-'LLL	.	.	.	(16ffLL	.	.
.	.	32a-'	.	.	.	.	.	.
.	.	32r	.	.	.	16aa-)	.	.
.	.	32f'	.	.	.	.	.	.
8r	.	32r	.	.	.	16aa-'JJ	.	.
.	.	32A-'	.	.	.	.	.	.
.	.	32F'	.	.	.	(96d-LLLL	.	.
.	.	.	.	.	.	96f	.	.
.	.	.	.	.	.	96a-	.	.
.	.	32D-'JJJ	.	.	.	96dd-	.	.
.	.	.	.	.	.	96ff	.	.
.	.	.	.	.	.	96aa-JJJJ)	.	.
=58	=58	=58	=58	=58	=58	=58	=58	=58
32CCLLL	.	8C	.	([4A- [4e-	.	(16aa-LL	.	V65
32A-	.	.	.	.	.	.	.	.
32r	.	.	.	.	.	32gg-L)	.	.
32E-	.	.	.	.	.	64r	.	.
.	.	.	.	.	.	64gg-JJJk	.	.
32r	.	8r	.	.	.	(16gg-LL	.	.
32E-	.	.	.	.	.	.	.	.
32C	.	.	.	.	.	32ee-L)	.	.
32AA-JJJ	.	.	.	.	.	64r	.	.
.	.	.	.	.	.	64ee-JJJk	.	.
8GG-	.	32CLLL	.	8A-L] 8e-]	.	(16ee-LL	.	V2
.	.	32g-	.	.	.	.	.	.
.	.	32r	.	.	.	32ccL)	.	.
.	.	32e-	.	.	.	64r	.	.
.	.	.	.	.	.	64ccJJJk	.	.
8r	.	32r	.	8cJ)	.	(16ccLL	.	.
.	.	32e-	.	.	.	.	.	.
.	.	32c	.	.	.	32a-L)	.	.
.	.	32G-JJJ	.	.	.	64r	.	.
.	.	.	.	.	.	64a-JJJk	.	.
=59	=59	=59	=59	=59	=59	=59	=59	=59
32FFLLL	.	8F	.	([8d- 8A-L	.	(16a-LL	.	I6
32A-	.	.	.	.	.	.	.	.
32r	.	.	.	.	.	16dd-JJ)	.	.
32F	.	.	.	.	.	.	.	.
32r	.	8r	.	8FJ	.	16dd-'LL	.	.
32D-	.	.	.	.	.	.	.	.
32AA-	.	.	.	.	.	(64ccLL	.	.
.	.	.	.	.	.	64dd-	.	.
32FFJJJ	.	.	.	.	.	64ee-	.	.
.	.	.	.	.	.	64dd-JJJJ)	.	.
8GG-L	.	32G-LLL	.	8d-L] 4B-	.	(16b-LL	.	ii65
.	.	32b-	.	.	.	.	.	.
.	.	32r	.	.	.	16gg-JJ)	.	.
.	.	32g-	.	.	.	.	.	.
32r	.	32r	.	8e-J)	.	16gg-'LL	.	.
32E-LL	.	32e-	.	.	.	.	.	.
32BB-	.	32B-	.	.	.	(64ffLL	.	.
.	.	.	.	.	.	64gg-	.	.
32FFJJJ	.	32G-JJJ	.	.	.	64aa-	.	.
.	.	.	.	.	.	64gg-JJJJ)	.	.
=60	=60	=60	=60	=60	=60	=60	=60	=60
16AA-LL	.	16A-LL	.	16r	.	16ff'LL	.	V(64)
16r	.	16d-	.	16A-LL 16f	.	(64gg-LL	.	.
.	.	.	.	.	.	64aa-	.	.
.	.	.	.	.	.	64bb-	.	.
.	.	.	.	.	.	64aa-JJJJ)	.	.
16AA-JJ	.	16r	.	16r	.	16ee-'LL	.	V7
16r	.	16cJJ	.	16A-JJ 16g-	.	(64gg-LL	.	.
.	.	.	.	.	.	64aa-	.	.
.	.	.	.	.	.	64bb-	.	.
.	.	.	.	.	.	64aa-JJJJ)	.	.
8D-	.	8d-	.	8A-L 8f	.	8dd-	.	I\\
8r	.	8r	.	16r	.	8r	.	.
.	.	.	.	16a-Jk	.	.	.	.
=61	=61	=61	=61	=61	=61	=61	=61	=61
16.A-LL	.	(16.g-LL	.	(16.ee-LL	.	2r	.	V7
32A-K	.	32fK)	.	32dd-K)	.	.	.	.
(16A-'	.	(16e-'	.	(16cc'	.	.	.	.
16A-'JJ)	.	16d-'JJ)	.	16b-'JJ)	.	.	.	.
(8.A-L	<	8.cL	<	(8.a-L	<	.	.	.
16AJk	[[	(16cJk	[[	16g-Jk	[[	.	.	.
=62	=62	=62	=62	=62	=62	=62	=62	=62
16B-LL	>	16d-LL	>	16fLL	>	8r	.	vi
16A	.	16c	.	16g-	.	.	.	.
16B-	.	16d-	.	16f	.	8r	.	IV
16G-JJ)	.	16d-JJ)	.	16b-JJ)	.	.	.	.
8A-X	]	8c	]	8e-	]	8r	.	V\\
8r	.	8r	.	8r	.	16r	.	.
.	.	.	.	.	.	16a-	.	.
=63	=63	=63	=63	=63	=63	=63	=63	=63
!	!	!LO:TX:b:t=cresc.	!	!	!	!	!	!
!LO:TX:b:t=cresc.	!	!LO:TX:a:t=cresc.	!	!	!	!LO:TX:b:t=cresc.	!	!
16.A-LL	.	(16.b-LL	.	(16.dd-LL	.	(16.gg-LL	.	V[IV6
32A-K	.	32a-K)	.	32ccK)	.	32ffK)	.	iii6
(16A-'	.	16g-'	.	16b-'	.	16ee-'	.	ii6
16A-'JJ)	.	16f'JJ	.	16a-'JJ	.	16dd-'JJ	.	I6
8.A-L	.	8.e-L	.	8.g-L	.	8.ccL	.	viio6]
(16B--XJk	sf	16e-Jk	sf	16g-Jk	sf	(16dd-Jk	sf	ii%43
=64	=64	=64	=64	=64	=64	=64	=64	=64
16A-LL	.	16e-LL	.	16g-LL	.	16ccLL	.	V7
16B--X	sf	16e-	sf	16g-	sf	16dd-	sf	ii%43
16A-	.	16e-	.	16g-	.	16cc	.	V7
16B--JJ)	sf	16e-JJ	sf	16g-JJ	sf	16dd-JJ)	sf	ii%43
8A-	.	8e-	.	8g-	.	8cc	.	V7
8r	.	8r	.	8r	.	8r	.	.
=65	=65	=65	=65	=65	=65	=65	=65	=65
8B-	p	8d-	p	8f	p	8dd-	p	vi
8r	.	8r	.	8r	.	8r	.	.
!	!	!	!	!	!LO:DY:a	!	!	!
8GG-'	ff	8G-'	ff	8B-' 8d-	ff ff	8G-' 8d- 8b-	.	IV
8r	.	8r	.	8r	.	8r	.	.
=66	=66	=66	=66	=66	=66	=66	=66	=66
16AA-LL	p	16A-LL	p	16FLL	p	16d-LL	p	V(64)
16r	.	16r	.	16r	.	16r	.	.
16AA-	.	16c	.	16G-	.	16e-	.	V7
16r	.	16r	.	16r	.	16r	.	.
16DD-	.	16A-	.	16F	.	16d-JJ	.	I\\
16r	.	16r	.	16r	.	16r	.	.
16r	.	16r	.	16r	pp	8r	.	.
16FFJJ	pp	16FJJ	pp	16FJJ	.	.	.	.
=67	=67	=67	=67	=67	=67	=67	=67	=67
(8FL	.	(8fL	.	(8fL	.	2r	.	i
16D-L	.	16d-L	.	16d-L	.	.	.	.
16AAJJ	.	16AJJ	.	16AJJ	.	.	.	.
8BB-L	.	8B-L	.	8B-L	.	.	.	.
16FFL	.	16FL	.	16FL	.	.	.	.
16AAJJ	.	16AJJ	.	16AJJ	.	.	.	.
=68	=68	=68	=68	=68	=68	=68	=68	=68
16BB-LL	.	16B-LL	.	16B-LL	.	4r	.	.
16C	.	16c	.	16c	.	.	.	.
16D-	.	16d-	.	16d-	.	.	.	.
16EXJJ	.	16eXJJ	.	16eXJJ	.	.	.	.
8F)	.	8f)	.	8f)	.	8r	.	V\\
8r	.	8r	.	8r	.	16r	.	.
.	.	.	.	.	.	(16f	pp	.
=69	=69	=69	=69	=69	=69	=69	=69	=69
8.BBB-L 8.BB-	pp	8.BB-L 8.B-	pp	8.FL 8.d	pp	8ffL	.	I.V/ii
.	.	.	.	.	.	16ddL	.	.
!	!LO:DY:a	!	!LO:DY:a	!	!	!	!	!
16BBB-Jk 16BB-	sf sf	16BB-Jk 16c	sf	16FJk 16e-	.	16aJJ)	sf	.
!LO:TX:a:t=cresc.	!	!	!	!	!	!	!	!
!LO:TX:b:t=cresc.	!	!	!	!LO:TX:b:t=cresc.	!	!LO:TX:b:t=cresc.	!	!
8.BBB-L 8.BB-	.	8.BB-L 8.B-	.	8.FL 8.d	.	(8b-L	.	.
.	.	.	.	.	.	16fL	.	.
16BBB-Jk 16BB-	sf	16BB-Jk 16c	sf	16FJk 16e-	sf	16aJJ)	sf	.
=70	=70	=70	=70	=70	=70	=70	=70	=70
8.BBB-L 8.BB-	.	8.BB-L 8.B-	.	8.FL 8.d	.	(8b-L	.	.
.	.	.	.	.	.	16fL	.	.
16BBB-Jk 16BB-	sf	16BB-Jk 16c	sf	16FJk 16e-	sf	16aJJ)	sf	.
16BBB-KL 16BB-	p	(16B-LL	p	(16FLL 16d	p	([4b-	p	.
(8B-	.	16c	.	16e-	.	.	.	.
.	.	16d-	.	16eX	.	.	.	.
16AJk)	.	16dJJ)	.	16fJJ)	.	.	.	.
=71	=71	=71	=71	=71	=71	=71	=71	=71
!	!	!LO:TX:b:t=cresc.	!	!	!	!	!	!
!LO:TX:b:t=cresc.	!	!LO:TX:a:t=cresc.	!	!	!	!LO:TX:b:t=cresc.	!	!
(16G-LL	.	(16e-LL	.	(16g-LL	.	16b-LL]	.	ii6
16F	.	16B-)	.	16a-	.	32ccL	.	V43/ii
.	.	.	.	.	.	32ddJ	.	.
16E-	.	16B-	.	16g-	.	16ee-)	.	ii
16D-JJ	.	16B-JJ	.	16gJJ	.	([16ee-JJ	.	V2/V
16CLL	.	(16e-LL	.	16a-LL	.	16ee-LL]	.	V6
16BB-	.	16E-)	.	16dd-	.	32ffL	.	V43/V
.	.	.	.	.	.	32gg	.	.
16AA-	.	(16E-	.	16cc	.	32aa-	.	V
.	.	.	.	.	.	32ccc-XJ	.	.
16GG-JJ)	.	16A-JJ)	.	16ee-JJ)	.	16cccJJ)	.	V2
=72	=72	=72	=72	=72	=72	=72	=72	=72
8FF	p	8A-	p	8d- 8a-	p	8ddd-	p	I6
8r	.	8r	.	8r	.	8r	.	.
8GG-'	ff	8G-'	ff	8G-' 8d- 8b-	ff	8g-' 8dd- 8bb-	ff	IV
8r	.	8r	.	8r	.	8r	.	.
=73	=73	=73	=73	=73	=73	=73	=73	=73
16AA-LL	pp	16A-LL	pp	16FLL	pp	16d-LL	pp	V(64)
16r	.	16r	.	16r	.	16r	.	.
16AA-	.	16c	.	16G-	.	16e-	.	V7
16r	.	16r	.	16r	.	16r	.	.
16DD-JJ	.	16A-	.	16FJJ	.	16d-JJ	.	I\\
16r	.	16r	.	16r	.	16r	.	.
8r	.	16r	.	8r	.	8r	.	.
.	.	(64GLL	.	.	.	.	.	.
.	.	64A-	.	.	.	.	.	.
.	.	64B-	.	.	.	.	.	.
.	.	64A-JJJJ)	.	.	.	.	.	.
=74	=74	=74	=74	=74	=74	=74	=74	=74
([4AA- 4G-	.	8C	.	8r	.	4r	.	V7
.	.	8r	.	16r	.	.	.	.
.	.	.	.	(64gLLLL	.	.	.	.
.	.	.	.	64a-	.	.	.	.
.	.	.	.	64b-	.	.	.	.
.	.	.	.	64a-JJJJ)	.	.	.	.
4AA-]) 4F	.	4r	.	8d-	.	8r	.	I64
.	.	.	.	8r	.	16r	.	.
.	.	.	.	.	.	(64ggLLLL	.	.
.	.	.	.	.	.	64aa-	.	.
.	.	.	.	.	.	64bb-	.	.
.	.	.	.	.	.	64aa-JJJJ)	.	.
=75	=75	=75	=75	=75	=75	=75	=75	=75
16AA-LL	.	16e-LL	.	16A-LL 16g-	.	16cc'LL	.	V7
16r	.	16r	.	16r	.	(64ggLL	.	.
.	.	.	.	.	.	64aa-	.	.
.	.	.	.	.	.	64bb-	.	.
.	.	.	.	.	.	64aa-JJJJ)	.	.
16AA-	.	16e-	.	16A- 16g-	.	16cc'LL	.	.
16r	.	16r	.	16r	.	(64ggLL	.	.
.	.	.	.	.	.	64aa-	.	.
.	.	.	.	.	.	64bb-	.	.
.	.	.	.	.	.	64aa-JJJJ)	.	.
16D-JJ	.	16d-	.	16A-JJ 16f	.	8dd-	.	I\\
16r	.	16r	.	16r	.	.	.	.
8r	.	(64GLL	.	8r	.	8r	.	.
.	.	64A-	.	.	.	.	.	.
.	.	64G	.	.	.	.	.	.
.	.	64A-	.	.	.	.	.	.
.	.	64G	.	.	.	.	.	.
.	.	64A-	.	.	.	.	.	.
.	.	64B-	.	.	.	.	.	.
.	.	64A-JJJJ)	.	.	.	.	.	.
=76	=76	=76	=76	=76	=76	=76	=76	=76
([4AA- 4G-	.	8C	.	8r	.	4r	.	V7
.	.	8r	.	(64gLLLL	.	.	.	.
.	.	.	.	64a-	.	.	.	.
.	.	.	.	64g	.	.	.	.
.	.	.	.	64a-	.	.	.	.
.	.	.	.	64g	.	.	.	.
.	.	.	.	64a-	.	.	.	.
.	.	.	.	64b-	.	.	.	.
.	.	.	.	64a-JJJJ)	.	.	.	.
4AA-]) 4F	.	4r	.	8d-	.	8r	.	I64
.	.	.	.	8r	.	(64ggLLLL	.	.
.	.	.	.	.	.	64aa-	.	.
.	.	.	.	.	.	64gg	.	.
.	.	.	.	.	.	64aa-	.	.
.	.	.	.	.	.	64gg	.	.
.	.	.	.	.	.	64aa-	.	.
.	.	.	.	.	.	64bb-	.	.
.	.	.	.	.	.	64aa-JJJJ)	.	.
=77	=77	=77	=77	=77	=77	=77	=77	=77
16AA-LL	.	16E-LL	.	16G-LL 16c	.	16cc'	.	V7
16r	.	16r	.	16r	.	(96ggLLLL	.	.
.	.	.	.	.	.	96aa-	.	.
.	.	.	.	.	.	96bb-	.	.
.	.	.	.	.	.	96aa-	.	.
.	.	.	.	.	.	96gg	.	.
.	.	.	.	.	.	96aa-JJ)	.	.
16AA-	.	16E-	.	16G- 16c	.	16cc'JJ	.	.
16r	.	16r	.	16r	.	(96ggLLLL	.	.
.	.	.	.	.	.	96aa-	.	.
.	.	.	.	.	.	96bb-	.	.
.	.	.	.	.	.	96aa-	.	.
.	.	.	.	.	.	96gg	.	.
.	.	.	.	.	.	96aa-JJJJ)	.	.
16D-JJ	.	16D-JJ	.	16FJJ 16d-	.	8dd-L	.	I
16r	.	16r	.	16r	.	.	.	.
8r	.	8r	.	8r	.	16r	.	.
.	.	.	.	.	.	(16ff'Jk	pp	.
=78	=78	=78	=78	=78	=78	=78	=78	=78
2r	.	4r	.	8.r	.	8a-'L)	.	I64
.	.	.	.	.	.	16r	.	.
.	.	.	.	(16d-'	.	(16dd-'Jk	.	.
!	!	!	!LO:DY:a	!	!	!	!	!
.	.	8.r	pp	8F')	.	8f'L)	.	I6
.	.	.	.	8r	.	16r	.	.
.	.	(16A-'	.	.	.	(16a-'Jk	.	.
=79	=79	=79	=79	=79	=79	=79	=79	=79
8r	.	8D-')	.	8r	.	8d-'L)	.	I
!LO:TX:a:t=pizz.	!	!LO:TX:a:t=pizz.	!	!LO:TX:a:t=pizz.	!	!LO:TX:a:t=pizz.	!	!
8AA-L	p	8G-	p	8e- 8cc	p	8A-J 8e-	p	V7
8D-J	.	8F	.	8d- 8dd-	.	8F 8d-	.	I\\
8r;	.	8r;	.	8r;	.	8r;	.	.
=||	=||	=||	=||	=||	=||	=||	=||	=||
*-	*-	*-	*-	*-	*-	*-	*-	*-
!!!system-decoration: s1,s2,s3,s4
